!!!OTL: ES WOLLT EIN MAEDCHEN WASSER HOLN
!!!ARE: Europa, Mitteleuropa, Deutschland, Franken
!!!SCT: E0117B
!!!YEM: Copyright 1995, estate of Helmut Schaffrath.
**kern
*ICvox
*Ivox
*M6/8
*k[b-]
*F:
{8c
=1
4f
8a
8a
8g
8f
=2
4e
8g
4b-}
{8g
=3
4a
8cc
8.cc
16b-
8a
=4
4.a
4g}
{16f
16a
=5
4cc
8a
4cc
8ff
=6
4cc
8b-
4a}
{8b-
=7
4a
8f
8.cc
16b-
8a
=8
4.g
4f}
==
!!!AGN: erzaehlendes Volks - Lied, Schalk -, Schelmen - Lied, Liebe     Ballade ?
!!!ONB: ESAC (Essen Associative Code) Database: ERK1
!!!AMT: compound duple
!!!AIN: vox
!!!EED: Helmut Schaffrath
!!!EEV: 1.0
*-
!!!title: @{OTL} [@{SCT}]
